!!!SOCIAL_FUNCTION:	unclassified songs
!!!PDT:	1909
!!!OTL: No_146_Call_to_the_Dance.krn
!!!REG: Great_Lakes
!!!LANG: Non-Tone
!!!LING_GROUP: Algonquin
**kern
*staff1
=1-
*clefF4
*k[]
*M3/4
4e\
8e\L
8e\J
8e\L
8d\J
=2||
*M2/4
8e\L
8d\J
4c\
=3
8A\L
8A\J
4A\
=4
8c\L
8c\J
8c\L
8c\J
=5
8e\L
8d\J
8e\L
8d\J
=6||
*M3/4
4c\
8A\L
8A\J
4A\
=7
4c\
8c\L
8A\J
8c\L
8A\J
=8||
*M2/4
8G\L
8G\J
8E\L
8E\J
=9
8G\L
8G\J
8c\L
8c\J
=10
8A\L
8A\J
8A\L
8G\J
=11
8A\L
8G\J
8E\L
8E\J
=12
4E\
4E\
=13
4E\
4E\
=14
8c\L
8c\J
8c\L
8c\J
=15
8e\L
8d\J
8d\L
8d\J
=16||
*M3/4
4c\
8A\L
8A\J
8A\L
8A\J
=17
8c\L
8c\J
8c\L
8A\J
8c\L
8A\J
=18||
*M2/4
4G\
4E\
=19
8G\L
8G\J
8c\L
8c\J
=20
8A\L
8A\J
8A\L
8G\J
=21
8A\L
8G\J
8E\L
8E\J
=22
4E\
4E\
=23
2E\
==
*-
